X: 1009
T: A New Jigg.
%R: jig
B: Henry Playford "Apollo's Banquet", London 1687 (5th Edition)
F: https://archive.org/details/apollosbanquetco01rugg
Z: 2017 John Chambers <jc:trillian.mit.edu>
N: Rest added as "pickup" to 2nd strain to fix the rhythm of repeats.
M: 6/4
L: 1/4
K: C
% - - - - - - - - - -
G |\
c>dc B2c | d>ef ecg | f3 e3 |\
d>cd eAB | c>Bc dGA | A3 G2 :|
|: z |\
g>ag f2e | a>ba (ge)c | B3 A2c |\
B>cd BGg | d>ef (eA)d | d3 c2 |]
% - - - - - - - - - -

%%sep 1 1 500
%%sep 1 1 500

